X: 63
T: Farmors vals
C: Karl Nilsson
R: waltz
M: 3/4
K: G
L: 1/8
D2 |: "G"G3 ABc | B2 d2 B2 | "D7"A2 c2 A2 | "G"G2 B2 D2 |
"G"G3 ABc | B2 d2 B2 | "D7"A2 c2 A2 |1 "G"G4 D2 :|2 "G"G4 BB |: "D7"d2 c2 A2 | "G"G4 BB |
"C"e2 cccc |"G"d2 BBBB | "D7"c2 AAAA| "G"G2 B2 d2 |
"C"e2 cccc |"G"d2 BBBB | "D7"c2 AAAA|1 "G"G4 BB:|2 "G"G4|]

